public/assets/logos/baker-white.svg

<svg fill="none" height="30" viewBox="0 0 31 30" width="31" xmlns="http://www.w3.org/2000/svg"><g fill="#fff"><path d="m11.343 6.28165-4.00124 1.77828v12.83387l-1.83614-.8141v-12.2193h.00146l-.00146-.11943z"/><path d="m12.4773 8.66574-1.6169 1.06319v12.79897l-2.01888-.9278v-12.08818-.13108z"/><path d="m20.0821 3.00037-4.8433 2.15111v19.38782l-2.2206-1.0195v-18.61008-.14564z"/><path d="m25.0921 6.15697-5.3214 2.36812v18.20511l-2.4443-1.1228v-17.34883-.1573z"/></g></svg>

<svg width="31" height="30" viewBox="0 0 31 30" fill="none" xmlns="http://www.w3.org/2000/svg">
<path d="M11.343 6.28165L7.34176 8.05993V20.8938L5.50562 20.0797V7.8604H5.50708L5.50562 7.74097L11.343 6.28165Z" fill="white"/>
<path d="M12.4773 8.66574L10.8604 9.72893V22.5279L8.84152 21.6001V9.51192V9.38084L12.4773 8.66574Z" fill="white"/>
<path d="M20.0821 3.00037L15.2388 5.15148V24.5393L13.0182 23.5198V4.90972V4.76408L20.0821 3.00037Z" fill="white"/>
<path d="M25.0921 6.15697L19.7707 8.52509V26.7302L17.3264 25.6074V8.25857V8.10127L25.0921 6.15697Z" fill="white"/>
</svg>
